X:1
T:The Gospel Railroad
T:The Gospel Railroad
T:James Edmond Thomas
T:Martha Elizabeth Hotchkiss Whitten, 1906
T:Public Domain Courtesy of the Cyber Hymnal™
T:Public Domain Courtesy of the Cyber Hymnal™
T:Public Domain Courtesy of the Cyber Hymnal™
C:James Edmond Thomas
Z:Public Domain
Z:Courtesy of the Cyber Hymnal™
%%score ( 1 2 ) ( 3 4 )
L:1/8
Q:1/4=93
M:4/4
K:A
V:1 treble 
V:2 treble 
V:3 bass 
V:4 bass 
V:1
 [CE]>[DF] | [EA]>[EA] [DF]>[CE] [EA]>[EA] [EA]>[FB] | %2
w: 1.~Heard you|not that rail- road whis- tle? Lo, the|
w: 2.~Storm- tossed|sin- ner o’er life’s bil- low, Come on|
w: 3.~We’re e-|quipped in Gos- pel ar- mor For the|
w: 4.~We’ve a|brave and true Con- duct- or, And the|
w: 5.~See the|Gos- pel head- light stream- ing Far a-|
w: 6.~Lo, our|En- gin- eer keeps sight- ing Down the|
w: 7.~We are|sweep- ing on to glo- ry, O’er each|
w: 8.~Soon we’ll|reach the heav’n- ly de- pot; Lo, its|
 [Ac]>[FB] [EA]>[DF] !fermata![CE]2 [CE]>[DF] | [EA]>[EA] [DF]>[CE] [EA]>[EA] [CA]>[EA] | %4
w: Gos- pel train is here. Get a-|board, ye earth- worn pil- grims, She is|
w: board this train to- day; There are|sta- tions rich in bless- ing Scat- tered|
w: con- flicts by the way, And our|food is heav’n- ly man- na God dis-|
w: Bi- ble is our guide; And the|Ho- ly Ghost sup- plies us With our|
w: down our fore- most track, To dis-|close the o- pen switch- es Sa- tan|
w: track with ea- gle eye, If per-|chance some threat- ening dan- ger Half con-|
w: cul- vert, ’round each curve; Up the|grade of con- se- cra- tion, Where our|
w: spires a- rise in sight As we|slow up at the sta- tion, At our|
 [Ac]>[EB] [Ac]>[A^d] !fermata![Ge]2 [Be]>[Bd] | [Ac]>[Ac] [GB]>[GB] [FA]>[FA] [Ec]>[EB] | %6
w: safe, there’s naught to fear. She is|built of God’s own tim- bers, Coach- es|
w: all a- long the way. Get your|tick- et, God’s for- give- ness; Je- sus|
w: pens- es day by day. Oh the|rich- ness of His mer- cy; How it|
w: “mov- ing power” be- side. All the|brake- men are God’s serv- ants, Stand- ing|
w: leaves to hurl us back. He may|plan wrecks and dis- as- ters, To de-|
w: cealed may near us lie. Down the|tracks are dark ob- struct- ions, Tri- als,|
w: train must ne- ver swerve. We are|speed- ing o’er the bridg- es, Where a|
w: jour- ney’s end a- light. Oh, the|shouts of an- gels greet us! Kin- dred|
 [Ec]>[FB] [EA]>[DF] !fermata![CE]2 [CE]>[CE] | [EA]>[EA] [EA]>[EA] [Ec]>[Ec] [Ae]>[Ad] | %8
w: am- ple and com- plete; Rails are|laid in faith and pa- tience, And each|
w: paid the fare, you know, And His|tel- e- grams of mer- cy Up and|
w: sa- tis- fies and saves! While the|ban- ner of sal- va- tion O’er our|
w: firm at du- ty’s post, Car- rying|train- loads in- to Ca- naan— Lo, a|
w: rail or ditch our train, But we’ll|make the run suc- cess- ful; All his|
w: trou- bles, pain and care; Hark! He|sig- nals “dan- ger!” “dan- ger!” Down with|
w: break means cer- tain death; O’er the|mount- ains, thro’ the tun- nels, Where we|
w: long gone on be- fore; And the|Sup- ’rin- ten- dent hails us, “Wel- come,|
 [Ac]>[EA] [EB]>[EB] !fermata![EA]2 ||"^Refrain" [Ae]>[A^d] | e4- [Ae]>[Ac] [Ac]>[A^B] | %11
w: tie a prom- ise sweet.|||
w: down this rail- road go.|||
w: rail- road proud- ly waves.|||
w: great un- num- bered host.|All a-|board the Gos- pel rail-|
w: ef- forts prove in vain.|||
w: brakes! “be- ware!” “be- ware!”|||
w: ride with bat- ed breath.|||
w: wel- come! ev- er- more!”|||
 c4- [Ec] [EA]2 [Ee]>[EB] | c6- [Fc]>[DB][CA]>[CF] | E6 !fermata![CE]>[DE] | %14
w: |||
w: |||
w: |||
w: * road. All a- board,|* ere ’tis too late;|* We are|
w: |||
w: |||
w: |||
w: |||
 A4- [EA]>[Ec] [Ae]>[A=g] | f2 d4 [Fe]>[Bd] | c4- [Ac]>[EA] [EB]>[EB] | A6 |] %18
w: ||||
w: ||||
w: ||||
w: bound for Heav- en’s de-|* pot, Where the|an- gel por- ters wait.||
w: ||||
w: ||||
w: ||||
w: ||||
V:2
 x2 | x8 | x8 | x8 | x8 | x8 | x8 | x8 | x6 || x2 | A3/2 A/ A3/2 A/ x4 | A3/2 E/ E x6 | %12
 F3/2 F/ F3/2 F/ x6 | (E>E D>D C2) x2 | E3/2 E/ E3/2 E/ x4 | (A>A) (F>FF>F) x2 | %16
 A3/2 A/ G3/2 G/ x4 | (E2 F>F E2) |] %18
V:3
 [A,,A,]>[A,,A,] | [A,C]>[A,C] [A,,A,]>[A,,A,] [A,C]>[A,C] [E,C]>[D,D] | %2
w: ~ ~|~ ~ ~ ~ ~ ~ ~ ~|
 [C,E]>[D,D] [E,C]>[E,A,] !fermata![A,,A,]2 [A,,A,]>[A,,A,] | %3
w: ~ ~ ~ ~ ~ ~ ~|
 [A,C]>[A,C] [A,,A,]>[A,,A,] [A,C]>[A,C] [A,,A,]>[A,,C] | %4
w: ~ ~ ~ ~ ~ ~ ~ ~|
 [A,E]>[G,E] [F,C]>B, !fermata![E,B,]2 [E,G,]>[E,B,] | %5
w: ~ ~ ~ ~ ~ ~ ~|
 [A,,E]>[A,,E] [B,,E]>[B,,D] [C,C]>[C,A,] [A,,A,]>[D,G,] | %6
w: ~ ~ ~ ~ ~ ~ ~ ~|
 [C,A,]>[D,A,] [E,C]>[F,A,] !fermata!A,2 A,>A, | %7
w: ~ ~ ~ ~ ~ ~ ~|
 [E,C]>[E,C] [C,A,]>[C,A,] [A,,A,]>[A,,A,] [A,,C]>[A,,D] | %8
w: ~ ~ ~ ~ ~ ~ ~ ~|
 [E,E]>[E,C] [E,D]>[E,D] !fermata![A,,A,C]2 || [A,C]>[A,^B,] | %10
w: ~ ~ ~ ~ ~|All a-|
 [A,C]>[A,C] [A,C]>[A,C] [A,C]>[A,E] [A,E]>[A,^D] | %11
w: board the Gos- pel rail- road. All a-|
 [A,,E]>[A,,A,] [C,A,]>[E,A,] !fermata![A,C]2 A,>[G,B,] x | %12
w: board, ere ’tis too late; All a-|
 [F,A,]>[F,A,] [F,A,]>[F,A,] [C,A,]>[D,A,] [E,A,]>[F,A,] x2 | %13
w: board the Gos- pel rail- road. All a-|
 [A,C]>[A,C] [E,B,]>[E,B,] !fermata![A,,A,]2 [A,,A,]>[A,,A,] | %14
w: board, ere ’tis too late; We are|
 [A,,C]>[A,,C] [A,,C]>[A,,C] [A,,C]>[A,,A,] [C,A,]>[C,A,] | %15
w: bound for Heav- en’s de- pot, We are|
 [D,D]>[D,D] [D,B,]>[D,B,] [D,A,]>[D,A,] [D,A,]>[D,F] | %16
w: bound for Heav- en’s de- pot, Where the|
 [E,E]>[E,E] [E,E]>[E,E] [E,E]>[E,C] [E,D]>[E,D] | C2 D>D C2 |] %18
w: shin- ing an- gel por- ters for us|wait, For us wait.|
V:4
 x2 | x8 | x8 | x8 | x7/2 B,/ x4 | x8 | x4 A,2 A,>A, | x8 | x6 || x2 | x8 | x6 A,3/2 x3/2 | x10 | %13
 x8 | x8 | x8 | x8 | A,,6 |] %18

